resources/svg/expand-2.svg

<svg xmlns="http://www.w3.org/2000/svg" fill="none" viewBox="0 0 14 14"><path fill="currentColor" fill-rule="evenodd" d="M1.07325 4.65834L0.57511 4.70042C0.629203 5.34075 1.40329 5.61029 1.84889 5.16469L2.79868 4.2149L4.28774 5.70391C4.67828 6.09443 5.31144 6.09441 5.70196 5.70388C6.09247 5.31335 6.09246 4.68018 5.70193 4.28967L4.21289 2.80069L5.16274 1.85085C5.60834 1.40524 5.3388 0.631157 4.69847 0.577064C3.35869 0.463884 2.47169 0.480979 1.07029 0.626601C0.835038 0.651047 0.649094 0.836991 0.624649 1.07225C0.479027 2.47364 0.461931 3.36064 0.575109 4.70042L1.07325 4.65834ZM13.4248 4.70042C13.3707 5.34075 12.5966 5.61029 12.151 5.16469L11.2012 4.2149L9.71218 5.70391C9.32165 6.09443 8.68849 6.09441 8.29797 5.70388C7.90745 5.31335 7.90746 4.68018 8.298 4.28967L9.78703 2.80069L8.83719 1.85085C8.39159 1.40524 8.66113 0.631157 9.30146 0.577064C10.6412 0.463884 11.5282 0.480979 12.9296 0.626601C13.1649 0.651047 13.3508 0.836991 13.3753 1.07225C13.5209 2.47364 13.538 3.36064 13.4248 4.70042ZM13.4248 9.29963C13.3707 8.65929 12.5966 8.38975 12.151 8.83536L11.2012 9.78514L9.71218 8.29614C9.32165 7.90562 8.68849 7.90563 8.29797 8.29617C7.90745 8.6867 7.90746 9.31986 8.298 9.71038L9.78703 11.1994L8.83719 12.1492C8.39159 12.5948 8.66113 13.3689 9.30146 13.423C10.6412 13.5362 11.5282 13.5191 12.9296 13.3734C13.1649 13.349 13.3508 13.1631 13.3753 12.9278C13.5209 11.5264 13.538 10.6394 13.4248 9.29963ZM0.624649 12.9278C0.479027 11.5264 0.461931 10.6394 0.57511 9.29963C0.629203 8.65929 1.40329 8.38975 1.84889 8.83536L2.79868 9.78514L4.28774 8.29614C4.67828 7.90562 5.31144 7.90563 5.70196 8.29617C6.09247 8.6867 6.09246 9.31986 5.70193 9.71038L4.21289 11.1994L5.16274 12.1492C5.60834 12.5948 5.3388 13.3689 4.69847 13.423C3.35869 13.5362 2.47169 13.5191 1.07029 13.3734C0.835038 13.349 0.649094 13.1631 0.624649 12.9278Z" clip-rule="evenodd"></path></svg>

<svg xmlns="http://www.w3.org/2000/svg" fill="none" viewBox="0 0 14 14"><path fill="currentColor" fill-rule="evenodd" d="M1.073 4.658.575 4.7c.054.64.828.91 1.274.465l.95-.95 1.489 1.489A1 1 0 0 0 5.702 4.29L4.212 2.8l.95-.95A.746.746 0 0 0 4.698.577C3.358.464 2.472.481 1.07.627a.5.5 0 0 0-.445.445C.479 2.474.462 3.361.575 4.7l.498-.042Zm12.352.042c-.054.64-.828.91-1.274.465l-.95-.95-1.489 1.489A1 1 0 1 1 8.298 4.29L9.787 2.8l-.95-.95c-.445-.445-.176-1.219.464-1.273 1.34-.113 2.227-.096 3.629.05a.5.5 0 0 1 .445.445c.146 1.402.163 2.289.05 3.628Zm0 4.6c-.054-.64-.828-.91-1.274-.465l-.95.95-1.489-1.489A1 1 0 1 0 8.298 9.71l1.489 1.49-.95.95c-.445.445-.176 1.219.464 1.273 1.34.113 2.227.096 3.629-.05a.5.5 0 0 0 .445-.445c.146-1.402.163-2.289.05-3.628Zm-12.8 3.628C.479 11.526.462 10.639.575 9.3c.054-.64.828-.91 1.274-.465l.95.95 1.489-1.489A1 1 0 1 1 5.702 9.71l-1.49 1.49.95.95a.746.746 0 0 1-.464 1.273c-1.34.113-2.226.096-3.628-.05a.5.5 0 0 1-.445-.445Z" clip-rule="evenodd"/></svg>
